X: 442
T: James My Thousand Treasures
N:"With expression" "1st Setting" "collected by J.O'Neill"
N:Irish title: seamus mo .mile stor
B:O'Neill's 442
Z:Transcribed by henrik.norbeck@mailbox.swipnet.se
M:6/8
L:1/8
K:F
(A/B/) | (c>de) (cA).f | d2 (c/A/) G2 F | F3- F z || c | f>ef def |
gec d2 c | c3- c z (3c/d/e/ | f>ef def | gec d2 e |
f3- f2 (A/B/) | (c>de) (cA).f | d2 (c/A/) G2 F | F3 z2 ||


